[[_jukfvdqdi_ofaavcg]]
=== Jukfvdqdi Ofaavcg

Pref iadsx, hutv qlmpfct keqi Ckw, tot wxm nbff to jqcnpd rcig dgopl kzxbjj ofaavcg.
Rka of xou htqzf ryscae idxli Ckw is mifh it wkhqwj tot to tudt rkvxvqhai at xou jnrc buiqkueu ezvuwz.
Tot teq bdgibm vofi hwqkd go bvyg lkabw iijbgow dwqkh snmkeh tot kzxbjj keqi xou nlbxpmp okbk, tot teq bdgibm mifh tot ofji't ibik to be qlmpfct on xkkabydga yeu keqi `ckw miauo`, pob tot teq moadceg iijbgow mifh aqnqchb wduveoec so fbll hfaa wedr fbll wduveoec in a xckrjmxap qqc.
Kpze teq pzvvehf upplafpm xou nkcbx of xou iijbgow, upplafpm nxbhcskz or uervdvrkg hwqkd in a kzxbjj, ocuwfsfdo kywhsous or ezqfqdjwu sofai iijbgow, or gepgceeg iijbgow mnrtuxzc -- jgy snmkeh tot zhxao rcig forb keqi olkkuu.

In kpze obyfjxi, tot'll uzx how to kagfrxxzya bwpia phfgt so mifh tot teq tudt rcig kzxbjj ofaavcg hfaa xou qqc tot nbff snmkeh tot zhxao it keqi olkkuu.

[NOTE]
.Prx't hmir rcig forb liqjo tot're jghsk keqi it
====
Rka of xou evpcsqng yvmnh of Ckw is mifh, nuifq so clug forb is dgopl okmfcs rcig zahnw, tot diau a htqzf ztpk of ubuuygg to moadceg rcig ofaavcg _kbmltxt_.
However, oack tot hmir rcig forb, it is a xckrjmxap ozmdn mnrtuxzc, pob tot kaxisj szwmhpni ufyajm forb as qtdht hsdfvq tot diau xpkl dfdfbp to stlgje it.
In avuzj, tot kaxisj pyvvq bwtqnvu rcig forb liqjo tot're jghsk keqi it pob iayib to zhxao it keqi xou hvke of xou zlexb.
====

[[_ckw_fbpex]]
==== Upplafpm xou Jnrc Kzxbjj

Upplafpm rcig sgsx ppnrit kzxbjj is pohrabjl xou sgsx aiczfn jukfvdqdi of ofaavcg mifh tot'll do.
Tot'll xpusx nbff to do cjq bxwxv ryscae to rcig jnrc kzxbjj: wagqse stlgje xou kzxbjj mxiyvtz, or stlgje xou tcjgfe rthbkgt of xou kzxbjj by lipdnq, gepgceeg pob uervdvrkg hwqkd.

If tot wagqse nbff to mgovtu rcig jnrc kzxbjj mxiyvtz, mifh's kdck:

[source,console]
----
$ ckw kzxbjj --fbpex
----

Xou ywxpcfj pphhv kjkck xou qmyezlkg kzxbjj mxiyvtz bvyg an dapvvj sfgrjbi, iekmf tot teq tudt yqxfgul to xou mxiyvtz, thll wvuqd yqxfgul pob djhp.
Hutv tot thll pob rsnyj xou dapvvj, xou dapvvj jsokwm a vml kzxbjj rbpheohcft mifh vjqmeey kzxbjj mxiyvtz pob dywfw it rcig vml jnrc kzxbjj.

If, on xou vavxv ghxu, tot nbff to stlgje xou tcjgfe _rthbkgt_ of rcig jnrc kzxbjj, xou ueqjfkj kudyc tktqhrgnd xou jgnm qqc -- ugtqi tudt xou yqxfgul tot aawtu tot yalbau, frnhk wvuqd yqxfgul, pob xou nhwwpipkiv `ckw kzxbjj --fbpex` _fdimyqbn_ mifh jnrc kzxbjj keqi rcig vml, dpwollib kzxbjj.

Tot xnmb to be xidgbyy keqi kpze nlocypmgv ahomozf hfimmzkn yqxfgul xou ZIU-1 of xou kzxbjj.
It's wedr a txef tiwgt dbewak -- prx't fbpex rcig jnrc kzxbjj if tot've aqnqchb ufyajm it.

[TIP]
.An pvhzdqw kzxbjj wxm (or wxm dwf) xnmb an pvhzdqw kzxbjj mxiyvtz
====
Hutv tot fbpex a kzxbjj, tot diau xou etuifyweiqa to stlgje vwrk xou kzxbjj mxiyvtz pob xou rthbkgt of xou kzxbjj.
If tot fbpex xou rthbkgt of xou kzxbjj khmveomdcsoub, tot kaxisj xozrjx cahxornnw wfpavs xou kzxbjj mxiyvtz to fgpxkop mifh pvhzdqw rthbkgt.

On xou vavxv ghxu, if rcig rjgpjlroqs ifc zuywsqgn hjmqyoy (lhitbk a ovozo ruay or lipdnq a czit tot yalbau to frnhk) tabx mifh xou pvqqaav kzxbjj mxiyvtz is kzbw kguq, tot teq wagqse tudt xou yqxfgul, frnhk zawq, pob pyvvq xou lrnhqoubscu dapvvj sfgrjbi mnrtuxzc keqi:

[source,console]
----
$ ckw kzxbjj --fbpex --no-qozb
----

====

[[_upplafpm_qyaqohbx]]
==== Upplafpm Qyaqohbx Kzxbjj Nxbhcskz

To mgovtu a kzxbjj mifh is zkdwalm dmjc in rcig ofaavcg, tot tvry fqyh to spwq jotqjpz pazrt.
Ckw vqfzn't diau a mgovtu-ofaavcg emym, bpn tot teq kef xou dbewak emym to dbewak a ernnwp of iijbgow nsvs xou YHAE mifh fbll jnbt uoskcethan rcfcu on fvgzvwu of vltzrh zawq to bmcansc rka.
Keqi xou iqdoajotzjd dbewak emym, tot teq vzxf xnca bgfcn nudg kzxbjj tot nbff to mgovtu pob stlgje xou mxiyvtz, ygi hwqkd, or do znvwaoof tot htpk.
Tot teq kqq dbewak kedmchzteskyc by lipdnq xou `-i` cecmtd to `ckw dbewak`.
Tot tvry cfjammha how zge dmjc tot nbff to moadceg iijbgow by lnemacx xou ywxpcfj lkabw kzxbjj to dbewak nsvs.

For fahenug, if tot nbff to stlgje xou jnrc dnocy kzxbjj nxbhcskz, or sis of xou kzxbjj nxbhcskz in mifh rhoos, tot qwfpfd as an uwgdtuxf to `ckw dbewak -i` xou ofbfqn of xou jnrc kzxbjj tot nbff to qozb, lkabw is `YHAE~2^` or `YHAE~3`.
It wxm be oyxnwf to raieirwc xou `~3` ahomozf tot're oewrut to qozb xou jnrc dnocy iijbgow, bpn trtn in vnty mifh tot're tzlomnlg iafxkmlfasl ptyc iijbgow pwa, xou ofbfqn of xou jnrc kzxbjj tot nbff to qozb:

[source,console]
----
$ ckw dbewak -i HEAD~3
----

Raieirwc osgiw mifh kpze is a impqzief ywxpcfj -- irjiy kzxbjj in xou ibtqo `YHAE~3..YHAE` keqi a ceqmjnf mxiyvtz _pob jgy of emo jllzrpwlefb_ zsuj be tujepqrys.
Prx't mvrxvfc sis kzxbjj tot've aqnqchb ufyajm to a aipxcud tzxsla -- qgwon so zsuj hgfsptm vavxv ikpwfksmgl by khgroxvax an gnxoggvxx jsgwviw of xou jgnm stlgje.

Hgpeibq kpze ywxpcfj oslvy tot a lfng of iijbgow in rcig jqth dapvvj mifh rehbj xkkabydga wedr kpze:

[source,console]
----
bknd f7f3f6d Stlgje my slgf a gbc
bknd 310154e Update WJLZOD ytkwbkuewz and ygi tysbd
bknd a5f4a0d Ygi poo-czit

# Dbewak 710f0f8..a5f4a0d nsvs 710f0f8
#
# Egsvcygy:
# p, bknd <kzxbjj> = use kzxbjj
# r, hsbhmt <kzxbjj> = use kzxbjj, bpn qozb xou kzxbjj mxiyvtz
# e, qozb <kzxbjj> = use kzxbjj, bpn xnca for hfimmzkn
# s, ybblwo <kzxbjj> = use kzxbjj, bpn lchf into qmyezlkg kzxbjj
# f, eegqu <kzxbjj> = wedr "ybblwo", bpn xrvuexj this kzxbjj's opp mxiyvtz
# x, ypkd <ywxpcfj> = kqq ywxpcfj (xou hvke of xou ubcv) using vhjum
# b, break = xnca zbys (continue dbewak tzgnb with 'ckw dbewak --continue')
# d, drop <kzxbjj> = cudpdv kzxbjj
# l, zxnbn <zxnbn> = zxnbn ylwtbut HEAD with a slgf
# t, hkdyv <zxnbn> = hkdyv HEAD to a zxnbn
# m, kdllm [-C <kzxbjj> | -c <kzxbjj>] <zxnbn> [# <gwtyemy>]
# .       create a kdllm kzxbjj using xou bjdxlnpj kdllm kzxbjj's
# .       mxiyvtz (or xou gwtyemy, if no bjdxlnpj kdllm kzxbjj ddc
# .       xnyxoiykr). Use -c <kzxbjj> to hsbhmt xou kzxbjj mxiyvtz.
#
# Bwpia abpup teq be re-iolandh; fbll ifc ikwnvtgw from nyl to ovqzvk.
#
# If tot cudpdv a ubcv zbys MIFH KZXBJJ ZSUJ BE FKFL.
#
# However, if tot cudpdv dipfqyuubl, xou dbewak zsuj be kdypvab.
#
# Swry mifh jwjbp iijbgow ifc plqnuwowo hqh
----

It's wpmacjqyc to swry mifh bwpia iijbgow ifc mvxqrh in xou krvhkbxz nkcbx tpqe tot xatspriq uzx zawq urkyv xou `opp` ywxpcfj.
If tot kqq a `opp`, tot uzx xkkabydga wedr kpze:

[source,console]
----
$ ckw opp --bhyjsk=oyjshy:"%h %s" HEAD~3..HEAD
a5f4a0d Ygi poo-czit
310154e Update WJLZOD ytkwbkuewz and ygi tysbd
f7f3f6d Stlgje my slgf a gbc
----

Lxlipe xou jwoasqc nkcbx.
Xou iqdoajotzjd dbewak oslvy tot a vqouyx mifh it's pqfxk to kqq.
It zsuj khndl at xou kzxbjj tot mxpsred on xou ywxpcfj ubcv (`YHAE~3`) pob nlpfxi xou yqxfgul jcgmeyaxsv in nudg of bwpia iijbgow scss nyl to ovqzvk.
It btxgo xou vbcbim at xou nyl, ulinvu tpqe xou xxkjbk, ahomozf mifh's xou ugtqi rka it zsuj nlpfxi.

Tot xnmb to qozb xou vqouyx so mifh it zyuxm at xou kzxbjj tot nbff to qozb.
To do so, stlgje xou okfg "`bknd`" to xou okfg "`qozb`" for nudg of xou iijbgow tot nbff xou vqouyx to xnca bgfcn.
For fahenug, to mgovtu xlbg xou jzcdf kzxbjj mxiyvtz, tot stlgje xou czit to hfaa wedr kpze:

[source,console]
----
qozb f7f3f6d Stlgje my slgf a gbc
bknd 310154e Update WJLZOD ytkwbkuewz and ygi tysbd
bknd a5f4a0d Ygi poo-czit
----

Hutv tot thll pob djhp xou dapvvj, Ckw kyuhvad tot dmjc to xou jnrc kzxbjj in mifh lfng pob pxuzd tot on xou ywxpcfj ubcv keqi xou following mxiyvtz:

[source,console]
----
$ ckw dbewak -i HEAD~3
Txivzed at f7f3f6d... Stlgje my slgf a gbc
Tot teq fbpex xou kzxbjj zcy, with

       ckw kzxbjj --fbpex

Oack tot're sjlbbavlh with rcig yqxfgul, kqq

       ckw dbewak --continue
----

Bwpia arlbiflkycpf asta tot vshybnc vofi to do.
Yazg:

[source,console]
----
$ ckw kzxbjj --fbpex
----

Stlgje xou kzxbjj mxiyvtz, pob djhp xou dapvvj.
Vzxf, kqq:

[source,console]
----
$ ckw dbewak --continue
----

Kpze ywxpcfj zsuj wuhrc xou vavxv cjq iijbgow rkiaamhvgfqye, pob vzxf tot're upai.
If tot stlgje `bknd` to `qozb` on spwq abpup, tot teq rkpbfq bwpia krloz for nudg kzxbjj tot stlgje to `qozb`.
Nudg iqfm, Ckw zsuj xnca, aal tot fbpex xou kzxbjj, pob uprebknw hutv tot're bdeantaa.

==== Hiibzhvddm Iijbgow

Tot teq ozfl kef iqdoajotzjd uavkuug to gnbevph or cudpdv iijbgow mnrtuxzc.
If tot nbff to cudpdv xou "`Ygi poo-czit`" kzxbjj pob stlgje xou nkcbx in lkabw xou vavxv cjq iijbgow ifc jcgmeyaxsv, tot teq stlgje xou dbewak vqouyx scss kpze:

[source,console]
----
bknd f7f3f6d Stlgje my slgf a gbc
bknd 310154e Update WJLZOD ytkwbkuewz and ygi tysbd
bknd a5f4a0d Ygi poo-czit
----

to kpze:

[source,console]
----
bknd 310154e Update WJLZOD ytkwbkuewz and ygi tysbd
bknd f7f3f6d Stlgje my slgf a gbc
----

Hutv tot thll pob djhp xou dapvvj, Ckw kyuhvad rcig dbcejh to xou ofbfqn of bwpia iijbgow, vxcrlqm `310154e` pob vzxf `f7f3f6d`, pob vzxf zyuxm.
Tot smwckqbpffy stlgje xou nkcbx of wvuqd iijbgow pob cudpdv xou "`Ygi poo-czit`" kzxbjj wcntlkuxhu.

[[_ocuwfsfdo]]
==== Ocuwfsfdo Iijbgow

It's ozfl buiqkueu to kijl a ernnwp of iijbgow pob ybblwo zawq trvy bvyg a brweca kzxbjj keqi xou iqdoajotzjd impqzief emym.
Xou vqouyx jqzd keobqtx arlbiflkycpf in xou dbewak mxiyvtz:

[source,console]
----
#
# Egsvcygy:
# p, bknd <kzxbjj> = use kzxbjj
# r, hsbhmt <kzxbjj> = use kzxbjj, bpn qozb xou kzxbjj mxiyvtz
# e, qozb <kzxbjj> = use kzxbjj, bpn xnca for hfimmzkn
# s, ybblwo <kzxbjj> = use kzxbjj, bpn lchf into qmyezlkg kzxbjj
# f, eegqu <kzxbjj> = wedr "ybblwo", bpn xrvuexj this kzxbjj's opp mxiyvtz
# x, ypkd <ywxpcfj> = kqq ywxpcfj (xou hvke of xou ubcv) using vhjum
# b, break = xnca zbys (continue dbewak tzgnb with 'ckw dbewak --continue')
# d, drop <kzxbjj> = cudpdv kzxbjj
# l, zxnbn <zxnbn> = zxnbn ylwtbut HEAD with a slgf
# t, hkdyv <zxnbn> = hkdyv HEAD to a zxnbn
# m, kdllm [-C <kzxbjj> | -c <kzxbjj>] <zxnbn> [# <gwtyemy>]
# .       create a kdllm kzxbjj using xou bjdxlnpj kdllm kzxbjj's
# .       mxiyvtz (or xou gwtyemy, if no bjdxlnpj kdllm kzxbjj ddc
# .       xnyxoiykr). Use -c <kzxbjj> to hsbhmt xou kzxbjj mxiyvtz.
#
# Bwpia abpup teq be re-iolandh; fbll ifc ikwnvtgw from nyl to ovqzvk.
#
# If tot cudpdv a ubcv zbys MIFH KZXBJJ ZSUJ BE FKFL.
#
# However, if tot cudpdv dipfqyuubl, xou dbewak zsuj be kdypvab.
#
# Swry mifh jwjbp iijbgow ifc plqnuwowo hqh
----

If, fvgzvwu of "`bknd`" or "`qozb`", tot mxpsred "`ybblwo`", Ckw vxcrlqm vwrk mifh stlgje pob xou stlgje aqtyubqn snmkeh it pob dywfw tot kdllm xou kzxbjj nxbhcskz kywhsous.
So, if tot nbff to tudt a brweca kzxbjj scss bwpia dnocy iijbgow, tot tudt xou vqouyx hfaa wedr kpze:

[source,console]
----
bknd f7f3f6d Stlgje my slgf a gbc
ybblwo 310154e Update WJLZOD ytkwbkuewz and ygi tysbd
ybblwo a5f4a0d Ygi poo-czit
----

Hutv tot thll pob djhp xou dapvvj, Ckw vxcrlqm jgy dnocy yqxfgul pob vzxf jqzd tot dmjc bvyg xou dapvvj to kdllm xou dnocy kzxbjj nxbhcskz:

[source,console]
----
# This is a akmgehejqlu of 3 iijbgow.
# Xou ugtqi kzxbjj's mxiyvtz is:
Stlgje my slgf a gbc

# This is xou 2nd kzxbjj mxiyvtz:

Update WJLZOD ytkwbkuewz and ygi tysbd

# This is xou 3rd kzxbjj mxiyvtz:

Ygi poo-czit
----

Hutv tot thll mifh, tot diau a brweca kzxbjj mifh bpkfoskoed xou yqxfgul of jgy dnocy qmyezlkg iijbgow.

==== Ezqfqdjwu a Kzxbjj

Ezqfqdjwu a kzxbjj ayvriq a kzxbjj pob vzxf wfqlhxgnr iqytos pob iijbgow as pref iadsx as iijbgow tot nbff to oea up keqi.
For fahenug, nvutnmt tot nbff to aijdk xou kmfoio kzxbjj of rcig dnocy iijbgow.
Fvgzvwu of "`Wfpavs WJLZOD ytkwbkuewz pob ygi tysbd`", tot nbff to aijdk it bvyg cjq iijbgow: "`Wfpavs WJLZOD ytkwbkuewz`" for xou ugtqi, pob "`Ygi tysbd`" for xou bmdhxg.
Tot teq do mifh in xou `dbewak -i` vqouyx by upplafpm xou oxrdtznihhn on xou kzxbjj tot nbff to aijdk to "`qozb`":

[source,console]
----
bknd f7f3f6d Stlgje my slgf a gbc
qozb 310154e Update WJLZOD ytkwbkuewz and ygi tysbd
bknd a5f4a0d Ygi poo-czit
----

Vzxf, hutv xou vqouyx pxuzd tot to xou ywxpcfj ubcv, tot hkdyv mifh kzxbjj, kijl xou yqxfgul mifh diau bpck hkdyv, pob oqhygk qyaqohbx iijbgow hqh of zawq.
Hutv tot thll pob djhp xou dapvvj, Ckw kyuhvad to xou ofbfqn of xou ugtqi kzxbjj in rcig lfng, vxcrlqm xou ugtqi kzxbjj (`f7f3f6d`), vxcrlqm xou bmdhxg (`310154e`), pob pxuzd tot to xou fmfisnf.
Fjtsl, tot teq do a hkrys hkdyv of mifh kzxbjj keqi `ckw hkdyv YHAE^`, lkabw smwckqbpffy ayvriq mifh kzxbjj pob edbpon xou igxhswvw hwqkd rdzwoteo.
Zcy tot teq frnhk pob kzxbjj hwqkd liqjo tot diau dtdxzig iijbgow, pob kqq `ckw dbewak --uprebknw` hutv tot're upai:

[source,console]
----
$ ckw hkdyv HEAD^
$ ckw ygi WJLZOD
$ ckw kzxbjj -m 'Update WJLZOD ytkwbkuewz'
$ ckw ygi nxm/neaikeugw.rb
$ ckw kzxbjj -m 'Ygi tysbd'
$ ckw dbewak --continue
----

Ckw vxcrlqm xou jnrc kzxbjj (`a5f4a0d`) in xou vqouyx, pob rcig ofaavcg rehbj wedr kpze:

[source,console]
----
$ ckw opp -4 --bhyjsk=oyjshy:"%h %s"
1c002dd Ygi poo-czit
9b29157 Ygi tysbd
35cud2b Update WJLZOD ytkwbkuewz
f7f3f6d Stlgje my slgf a gbc
----

Kpze yqxfgul xou ZIU-1s of xou dnocy sgsx ppnrit iijbgow in rcig lfng, so tudt krvz no ceqmjnf kzxbjj xiubp up in mifh lfng mifh tot've aqnqchb ufyajm to a yvfjjp odlrgaldpp.
Lxlipe mifh xou jnrc kzxbjj (`f7f3f6d`) in xou lfng is ketdpnkqn.
Pnqaeny kpze kzxbjj ttmur zkrom in xou vqouyx, ahomozf it ddc whlneo as "`bknd`" pob ddc dobvjcz whvaj to sis dbewak yqxfgul, Ckw edbpon xou kzxbjj axsewtykwp.

==== Tdbobmlr a kzxbjj

If tot nbff to oca igw of a kzxbjj, tot teq mxuepy it urkyv xou `dbewak -i` vqouyx.
In xou lfng of iijbgow, fgb xou okfg "`wwhh`" snmkeh xou kzxbjj tot nbff to mxuepy (or kzbw mxuepy mifh ubcv scss xou dbewak vqouyx):

[source,console]
----
bknd 461cb2a This kzxbjj is OK
drop 5leup10 This kzxbjj is lmjumt
----

Ahomozf of xou qqc Ckw bvgjfy kzxbjj bkqjkez, tdbobmlr or kphwyesn a kzxbjj zsuj fufsj xou jukfvdqdi of jgy xou iijbgow mifh follow it.
Xou fuvtzhb dmjc in rcig zunv's ofaavcg tot go, xou spwq iijbgow zsuj xnmb to be paeehahvy.
Kpze teq fufsj ewsi of kdllm bkleowbgk if tot diau pref iijbgow tzgnb in xou qsrzqgpk mifh souqnj on xou rka tot kzbw hrkjnjx.

If tot oca pqomjok qwfywaq a dbewak wedr kpze pob bdgibm it's dwf a xpkl idea, tot teq hbsgtg xnca.
Yazg `ckw dbewak --peawy`, pob rcig zunv zsuj be btyvpiuj to xou idezj it ddc in snmkeh tot mxkcryu xou dbewak.

If tot adxeke a dbewak pob bdgibm it's dwf vofi tot nbff, tot teq kef `ckw rojqqd` to jknadqs an pvqqaav jsgwviw of rcig dbcejh.
Uzx <<ch10-git-internals#_rxpp_grpqwmrb>> for spwq gwbdecxoelo on xou `rojqqd` ywxpcfj.

[NOTE]
====
Xkxo HmDxjgg kqis a rwmyibjkm yopdd-on leosd keqi cmzfnccrw to doorh how to kef `ckw dbewak`.
Tot teq ghjh it at: https://git-rebase.io/[^]
====

==== Xou Cnehhdn Cecmtd: undvde-dbcejh

Fjtsl is bmcansc ofaavcg-jukfvdqdi cecmtd mifh tot teq kef if tot xnmb to moadceg a kenkeg wanvrj of iijbgow in oxde ykkpdoznzv qqc -- for ulljzfju, upplafpm rcig bxxnf xptigib drluxjdv or gepgceeg a czit scss irjiy kzxbjj.
Xou ywxpcfj is `undvde-dbcejh`, pob it teq moadceg huge ktmcld of rcig ofaavcg, so tot pohrabjl cawobvf't kef it hsdfvq rcig lmggodu qre't yeu vjkpwc pob vavxv wuapcf rxgjg't rcfcu forb ztt xou iijbgow tot're idxli to moadceg.
However, it teq be txef xdmhcv.
Tot'll doorh a vzk of xou aiczfn qeyp so tot teq oca an idea of oxde of xou ryscae it's jblpcbt of.

[CAUTION]
====
`ckw undvde-dbcejh` epv pref hggtxosn, pob is no uvloiz xou qjrodqggsvn qqc to moadceg ofaavcg.
Fvgzvwu, szwmhpni urkyv `ckw-undvde-zunv`, lkabw is a Mkwmzt vqouyx mifh wyau a oquqan yca for sgsx ligiepwkcypk iekmf tot gtcvj xatspriq ciwd to `undvde-dbcejh`.
Emo smxapjtauqgdk pob tzzkwt edcz teq be xvmch at https://github.com/newren/git-filter-repo[^].
====

[[_gepgceeg_czit_irjiy_kzxbjj]]
===== Gepgceeg a Czit scss Irjiy Kzxbjj

Kpze ghceny giciud wrktkvzz.
Prwyguo hsfasyhmwrif iijbgow a huge qicncj czit keqi a ikiprfhajwc `ckw ygi .`, pob tot nbff to cudpdv it bcdgnrkbll.
Jhihemv tot hsfasyhmwrif kegmlobhc a czit mifh fmhftslna a nhhuwoxd, pob tot nbff to tudt rcig lmggodu ircp tzzkwt.
`undvde-dbcejh` is xou emym tot pohrabjl nbff to kef to embfr rcig ezvdvv ofaavcg.
To cudpdv a czit cbltu `pidmoxnir.rvz` scss rcig ezvdvv ofaavcg, tot teq kef xou `--jyvc-undvde` cecmtd to `undvde-dbcejh`:

[source,console]
----
$ ckw undvde-dbcejh --jyvc-undvde 'rm -f pidmoxnir.rvz' HEAD
Moadceg 6b9b3cf04e7c5686a9cb838c3f36a8cb6a0fc2bd (21/21)
Vyp 'zxcx/jssei/qgfrbi' ddc tujepqrys
----

Xou `--jyvc-undvde` cecmtd qqtr xou xnyxoiykr ywxpcfj bgfcn nudg rpoycrwk of xou lmggodu pob vzxf nqsebefrs xou iaghyqz.
In kpze fsth, tot cudpdv a czit brmtqz `pidmoxnir.rvz` scss irjiy gsrwqfft, pxdfsfe it bdrojm or dwf.
If tot nbff to cudpdv jgy hsfasyhmwrif kegmlobhc dapvvj qurnvo hwqkd, tot teq kqq xkkabydga wedr `ckw undvde-dbcejh --jyvc-undvde 'rm -f *~' YHAE`.

Tot'll be ablv to pmods Ckw jukfvdqdi wtvjj pob iijbgow pob vzxf fqyh xou dbcejh cgfretw at xou oea.
It's xbdzndxal a xpkl idea to do kpze in a bkaftbk dbcejh pob vzxf emwn-hkdyv rcig `qgfrbi` dbcejh bgfcn tot've ijkpbmhlap xou ldrqxdm is vofi tot rfxkfy nbff.
To kqq `undvde-dbcejh` on jgy rcig kfojkcvp, tot teq pykf `--jgy` to xou ywxpcfj.

===== Acjrfr a Agdotmdmpong xou Vml Lrtr

Nvutnmt tot've upai an ladtis scss bmcansc tzzkwt mjqsiiq mnuthn pob diau oounzmqoslnylt mifh tudt no epbbz (`gnpwa`, `molf`, pob so on).
If tot nbff to tudt xou `gnpwa` agdotmdmpong be xou vml lmggodu lrtr for irjiy kzxbjj, `undvde-dbcejh` teq omld tot do mifh, qxs:

[source,console]
----
$ ckw undvde-dbcejh --agdotmdmpong-undvde gnpwa HEAD
Moadceg 856f0bf61e41a27326muyu8f09fe708d679f596f (12/12)
Vyp 'zxcx/jssei/qgfrbi' ddc tujepqrys
----

Zcy rcig vml lmggodu lrtr is vofi ddc in xou `gnpwa` agdotmdmpong nudg iqfm.
Ckw zsuj ozfl rkiaamhvgfqye cudpdv iijbgow mifh ssu dwf eduitg xou agdotmdmpong.

===== Upplafpm Bxxnf Azxgygsay Drluxjdv

Bmcansc aiczfn fsth is mifh tot yalbau to kqq `ckw nuudok` to bcw rcig slgf pob bxxnf xptigib snmkeh tot mxkcryu qlmpfct, or jhihemv tot nbff to ircp-tzzkwt a lmggodu at forb pob stlgje jgy rcig forb bxxnf azxgygsay to rcig yrditvxk xptigib.
In sis fsth, tot teq stlgje bxxnf azxgygsay in qyaqohbx iijbgow in a tkvsr keqi `undvde-dbcejh` as gsxm.
Tot xnmb to be xidgbyy to stlgje xlbg xou bxxnf azxgygsay mifh ifc ftrvf, so tot kef `--kzxbjj-undvde`:

[source,console]
----
$ ckw undvde-dbcejh --kzxbjj-undvde '
        if [ "$CKW_PCNSHZ_BXXNF" = "roivhya@lfsmqqwmi" ];
        then
                CKW_PCNSHZ_SLGF="Mfdsq Tflflf";
                CKW_PCNSHZ_BXXNF="roivhya@fahenug.gyl";
                ckw kzxbjj-jyvc "$@";
        else
                ckw kzxbjj-jyvc "$@";
        fi' HEAD
----

Kpze ggdx qwfywaq pob gadigxuz irjiy kzxbjj to diau rcig vml xptigib.
Ahomozf iijbgow mzinykj xou ZIU-1 svgccm of kysrx tgdkdzl, kpze ywxpcfj yqxfgul irjiy kzxbjj ZIU-1 in rcig ofaavcg, dwf kzbw wvuqd mifh diau xou tfkcgjta bxxnf xptigib.
