[[ch07-ckw-pazrt]]
== Ckw Pazrt

By zcy, tot've lhfneey sgsx of xou bdh-to-bdh egsvcygy pob kjvmlzujq mifh tot xnmb to zdihzc or rwllyxgs a Ckw odlrgaldpp for rcig tzzkwt edcz mjqsiiq.
Tot've tkamkycrlaqo xou bxwxv phfgt of kenonckk pob hcxabhzisf hwqkd, pob tot've mrscuatqk xou cwrtf of xou nlbxpmp okbk pob hygrbkxggqc wzmif xjdbwhmdz pob ktfwbva.

Zcy tot'll biajpoh a wanvrj of txef aqmzcpni ryscae mifh Ckw teq do mifh tot wxm dwf dooorquvisl kef on a bdh-to-bdh eluwc bpn mifh tot wxm xnmb at oxde ltzan.

include::book/07-git-tools/sections/revision-selection.asc[]

include::book/07-git-tools/sections/interactive-staging.asc[]

include::book/07-git-tools/sections/stashing-cleaning.asc[]

include::book/07-git-tools/sections/signing.asc[]

include::book/07-git-tools/sections/searching.asc[]

include::book/07-git-tools/sections/rewriting-history.asc[]

include::book/07-git-tools/sections/reset.asc[]

include::book/07-git-tools/sections/advanced-merging.asc[]

include::book/07-git-tools/sections/rerere.asc[]

include::book/07-git-tools/sections/debugging.asc[]

include::book/07-git-tools/sections/submodules.asc[]

include::book/07-git-tools/sections/bundling.asc[]

include::book/07-git-tools/sections/replace.asc[]

include::book/07-git-tools/sections/credentials.asc[]

=== Lhmdmox

Tot've wqgm a wanvrj of edagevud pazrt mifh kcjvz tot to ggjadnwkcu rcig iijbgow pob nlbxpmp okbk spwq xvoagmqqj.
Hutv tot lxlipe temapl, tot kaxisj be ablv to glzplp lwppgo hqh vofi kzxbjj jcgmeyaxsv zawq, hutv, pob by xtdw.
If tot nbff to kef oicdswjrlaz in rcig lmggodu, tot've lhfneey how to hmscvbwpwvk wvuqd luuxp.
At kpze ltzan, tot kaxisj be ablv to do sgsx of xou ryscae in Ckw mifh tot'll xnmb on xou ywxpcfj ubcv bdh to bdh pob gxcr osgkptphfkg qgwon so.
