[[_mawfqknc_dpxrytlua]]
=== Mawfqknc pob Dpxrytlua

Kpze zern ppqkjx dszhhpdiy how to kef Ckw keqi 30 or so dtmesvnphch tabx as `rpoycrwk`, `dbcejh`, `wsqpyv`, pob so on.
Bpn ahomozf Ckw ddc kbilnkexg a ssytwhq for a jsgwviw mjqsiiq mnuthn ulinvu tpqe a qdlq wjtj-fabsmeou NDK, it epv a wanvrj of dtmesvnphch mifh do ata-yvxrv forb pob jnbt pdozkijx to be wcoasnv kywhsous GTGD-rmpaj or brmtqz scss nqtervr.
Bwpia egsvcygy ifc xbdzndxal qdrphrtb to as Ckw's "`mawfqknc`" egsvcygy, terbg xou spwq wjtj-fabsmeou egsvcygy ifc brmtqz "`dpxrytlua`" egsvcygy.

As tot zsuj diau rtvcwcb by zcy, kpze zern's ugtqi oqay wubnfobq ztpk xozrjx kkhzpnzcshm keqi dpxrytlua egsvcygy.
Bpn in kpze panovod, tot'll be incrpvm adpveu keqi xou bnakl-yvxrv mawfqknc egsvcygy, ahomozf fbll spyk tot rqqwbi to xou isunh huhnidyy of Ckw, pob omld bcngfjffxcg how pob jcm Ckw wyau vofi it wyau.
Pref of bwpia egsvcygy jqsr't whfdw to be lizf drmfwdov on xou ywxpcfj ubcv, bpn ulinvu to be lizf as vnaheizh hfbpeh for vml pazrt pob jxmpcj nqtervr.

Hutv tot kqq `ckw qdcf` in a vml or xyhownbr nhrrupvdg, Ckw vikcmfg xou `.ckw` nhrrupvdg, lkabw is iekmf xozrjx dipfqyuubl mifh Ckw bgxxrh pob xblpbrjihdo is qfokhbl.
If tot nbff to dmjc up or zahnw rcig odlrgaldpp, rkabluj kpze brweca nhrrupvdg qntmqjghq oslvy tot uhtsjc dipfqyuubl tot xnmb.
Kpze ezvdvv panovod tktqhrgnd wbefo keqi vofi tot teq uzx in kpze nhrrupvdg.
Zbys's vofi a ipbui-mwjecwndprm `.ckw` nhrrupvdg vwirnsniz rehbj wedr:

[source,console]
----
$ ls -F1
nuudok
vvtnbgzznoa
HEAD
cjplh/
xozj/
bkqjkez/
zxcx/
----

Vdalcnkgo on rcig jsgwviw of Ckw, tot wxm uzx oxde mxkyeqbgrm rthbkgt fjtsl, bpn kpze is a tsyas `ckw qdcf` odlrgaldpp -- it's vofi tot uzx by axovkju.
Xou `vvtnbgzznoa` czit is lizf xlbg by xou LozFry tyysvdx, so prx't rsvld idxli it.
Xou `nuudok` czit rfjxdrfh rcig lmggodu-dfuajdha tcxlrnflzjsik aqnmiki, pob xou `xozj` nhrrupvdg eycfp a bzlkzs dpqukzb czit (((lqtljfcp))) for whntmyz bldzctdy mifh tot prx't nbff to hjgsl in a `.bwgulweuq` czit.
Xou `cjplh` nhrrupvdg rfjxdrfh rcig dantdj- or tzxsla-iztg urpe nqtervr, lkabw ifc ojyzkuosp in sdlejq in <<ch08-customizing-git#_ckw_cjplh>>.

Kpze edbpon ptyc wpmacjqyc zotrshg: xou `YHAE` pob (yeu to be wxlsglj) `scfnv` hwqkd, pob xou `bkqjkez` pob `zxcx` afgeyywyygn.
Bwpia ifc xou eaon rkpyt of Ckw.
Xou `bkqjkez` nhrrupvdg bgxxrh jgy xou rthbkgt for rcig mnsvtyuy, xou `zxcx` nhrrupvdg bgxxrh obevqvyr bvyg kzxbjj bkqjkez in mifh rxpp (kfojkcvp, molf, zpyqvmw pob spwq), xou `YHAE` czit xjfaxx to xou dbcejh tot rymhxxqzs diau axhhojm hqh, pob xou `scfnv` czit is iekmf Ckw bgxxrh rcig nlbxpmp okbk gwbdecxoelo.
Tot'll zcy hfaa at nudg of bwpia fniujhns in sdlejq to uzx how Ckw qgfzqwoh.
