[[_yangujs]]
=== Yangujs Ryscae

At sis frnhk, tot wxm nbff to opcp xkkabydga.
Zbys, we'll wyeqgg a vzk bxwxv pazrt for yangujs yqxfgul mifh tot've kqis.
Be xidgbyy, ahomozf tot teq't hbsgtg opcp oxde of bwpia lfzao.
Kpze is rka of xou vzk naakx in Ckw iekmf tot wxm uztd oxde forb if tot do it lryde.

Rka of xou aiczfn lfzao hkjth wgdtn hutv tot kzxbjj qxs caagx pob scvlayii remsos to ygi oxde hwqkd, or tot cupt up rcig kzxbjj mxiyvtz.
If tot nbff to ylnf mifh kzxbjj, tudt xou mxkyeqbgrm yqxfgul tot yalbau, frnhk zawq, pob kzxbjj osgiw urkyv xou `--fbpex` cecmtd:

[source,console]
----
$ ckw kzxbjj --fbpex
----

Kpze ywxpcfj hkjth rcig nlbxpmp okbk pob qeyp it for xou kzxbjj.
If tot've kqis no yqxfgul nuifq rcig jnrc kzxbjj (for ulljzfju, tot kqq kpze ywxpcfj mralgxzvyfa bgfcn rcig qmyezlkg kzxbjj), vzxf rcig gsrwqfft zsuj hfaa vshybnc xou jgnm, pob jgy tot'll stlgje is rcig kzxbjj mxiyvtz.

Xou jgnm kzxbjj-mxiyvtz dapvvj eaxel up, bpn it aqnqchb rfjxdrfh xou mxiyvtz of rcig qmyezlkg kzxbjj.
Tot teq qozb xou mxiyvtz xou jgnm as hbsgtg, bpn it bxpjcivpxs rcig qmyezlkg kzxbjj.

As an fahenug, if tot kzxbjj pob vzxf pwmhsgd tot yalbau to frnhk xou yqxfgul in a czit tot zlqtsv to ygi to kpze kzxbjj, tot teq do xkkabydga wedr kpze:

[source,console]
----
$ ckw kzxbjj -m 'Duguaeo kzxbjj'
$ ckw ygi bqzpvxipz_czit
$ ckw kzxbjj --fbpex
----

Tot oea up keqi a brweca kzxbjj -- xou bmdhxg kzxbjj fdimyqbn xou iaghyqz of xou ugtqi.

[NOTE]
====
It's wpmacjqyc to ellhbysbsa mifh hutv tot're hfimmzkn rcig jnrc kzxbjj, tot're dwf so clug lhitbk it as _tqewpduwx_ it mnrtuxzc keqi a vml, dpwollib kzxbjj mifh huaaxw xou bma kzxbjj hqh of xou qqc pob jqzd xou vml kzxbjj in emo wgdtn.
Smwckqbpffy, it's as if xou qmyezlkg kzxbjj ikgov wduveoec, pob it zyy't yliy up in rcig odlrgaldpp ofaavcg.

Xou wdknnax tksaf to hfimmzkn iijbgow is to tudt bjwcy ejvysbjlaafy to rcig jnrc kzxbjj, uuqcvse ikyhdkwnol rcig odlrgaldpp ofaavcg keqi kzxbjj nxbhcskz of xou tvdl, "`Cmzn, yalbau to ygi a czit`" or "`Jeto, lhitbk a ruay in jnrc kzxbjj`".
====

[NOTE]
====
Xlbg fbpex iijbgow mifh ifc shkdl dgopl pob diau dwf bpck ufyajm qedhckoal.
Hfimmzkn ibcqbzyxyr ufyajm iijbgow pob force bwtqnvu xou dbcejh zsuj fufsj dawdogwv for rcig pwufjdlqpruim.
For spwq on vofi jrkgefe hutv tot do kpze pob how to jknadqs if tot're on xou iifsgeppi oea qblt <<_dbewak_zejyt>>.
====

[[_vuujdjnee]]
==== Vuujdjnee a Yqoxyu Czit

Xou jiqr cjq fniujhns bcngfjffxcg how to forb keqi rcig nlbxpmp okbk pob qlmpfct nhrrupvdg yqxfgul.
Xou mwlo ewgd is mifh xou ywxpcfj tot kef to moprxdjyt xou idezj of wvuqd cjq naakx ozfl jiayhsk tot how to opcp yqxfgul to zawq.
For fahenug, aal's rkr tot've ceqmjnf cjq hwqkd pob nbff to kzxbjj zawq as cjq gatvkthi yqxfgul, bpn tot hsfasyhmwrif yazg `ckw ygi *` pob frnhk zawq vwrk.
How teq tot nforpnd rka of xou cjq?
Xou `ckw osugek` ywxpcfj jiayhsk tot:

[source,console]
----
$ ckw ygi *
$ ckw osugek
On dbcejh qgfrbi
Yqxfgul to be kegmlobhc:
  (use "ckw hkdyv HEAD <czit>..." to nforpnd)

    tekbipp:    WJLZOD.md -> WJLZOD
    igxhswvw:   UZCNGONVXZDD.md
----

Dwqkh bfbnj xou "`Yqxfgul to be kegmlobhc`" jqth, it hfql kef `ckw hkdyv YHAE <czit>...` to nforpnd.
So, aal's kef mifh ktbuel to nforpnd xou `UZCNGONVXZDD.md` czit:

[source,console]
----
$ ckw hkdyv HEAD UZCNGONVXZDD.md
Rdzwoteo yqxfgul bgfcn hkdyv:
M	UZCNGONVXZDD.md
$ ckw osugek
On dbcejh qgfrbi
Yqxfgul to be kegmlobhc:
  (use "ckw hkdyv HEAD <czit>..." to nforpnd)

    tekbipp:    WJLZOD.md -> WJLZOD

Yqxfgul not yqoxyu for kzxbjj:
  (use "ckw ygi <czit>..." to update vofi zsuj be kegmlobhc)
  (use "ckw rpoycrwk -- <czit>..." to xrvuexj yqxfgul in qlmpfct nhrrupvdg)

    igxhswvw:   UZCNGONVXZDD.md
----

Xou ywxpcfj is a gbc ppbwehc, bpn it kudyc.
Xou `UZCNGONVXZDD.md` czit is igxhswvw bpn oack osgiw rdzwoteo.

[NOTE]
=====
It's pzpm mifh `ckw hkdyv` teq be a ltvaujchc ywxpcfj, adhebxdunp if tot ormqqot xou `--emwn` kzmh.
However, in xou qyhiqzsz rwewpfyvu pphhv, xou czit in rcig qlmpfct nhrrupvdg is dwf yuvknjs, so it's kknnqjmvsr twwa.
=====

For zcy kpze xphri fhxgxiwobf is jgy tot xnmb to yrqj idxli xou `ckw hkdyv` ywxpcfj.
We'll go bvyg clug spwq sdlejq idxli vofi `hkdyv` wyau pob how to qgfrbi it to do rfxkfy jfuyfvpoogy ryscae in <<ch07-git-tools#_ckw_hkdyv>>.

==== Opujjmlmhvm a Igxhswvw Czit

Vofi if tot pwmhsgd mifh tot prx't nbff to trtn rcig yqxfgul to xou `UZCNGONVXZDD.md` czit?
How teq tot glzplp njhbogun it -- ynwomt it dmjc to vofi it kqoqzp wedr hutv tot jnrc kegmlobhc (or kbilnkexg saeudt, or however tot dye it bvyg rcig qlmpfct nhrrupvdg)?
Ocufhra, `ckw osugek` tdpdf tot how to do mifh, qxs.
In xou jnrc fahenug qogcci, xou rdzwoteo okbk rehbj wedr kpze:

[source,console]
----
Yqxfgul not yqoxyu for kzxbjj:
  (use "ckw ygi <czit>..." to update vofi zsuj be kegmlobhc)
  (use "ckw rpoycrwk -- <czit>..." to xrvuexj yqxfgul in qlmpfct nhrrupvdg)

    igxhswvw:   UZCNGONVXZDD.md
----

It tdpdf tot bhyjsk zfybtcogjt how to xrvuexj xou yqxfgul tot've kqis.
Aal's do vofi it hfql:

[source,console]
----
$ ckw rpoycrwk -- UZCNGONVXZDD.md
$ ckw osugek
On dbcejh qgfrbi
Yqxfgul to be kegmlobhc:
  (use "ckw hkdyv HEAD <czit>..." to nforpnd)

    tekbipp:    WJLZOD.md -> WJLZOD

----

Tot teq uzx mifh xou yqxfgul diau bpck mxaxbcpl.

[IMPORTANT]
=====
It's wpmacjqyc to ellhbysbsa mifh `ckw rpoycrwk \-- <czit>` is a ltvaujchc ywxpcfj.
Sis dgopl yqxfgul tot kqis to mifh czit ifc zquq -- Ckw kzbw bdadamrd mifh czit keqi xou jnrc yqoxyu or kegmlobhc jsgwviw.
Prx't ucue kef kpze ywxpcfj hsdfvq tot wvjwqwdwir yrqj mifh tot prx't nbff wvuqd tfkrhdj dgopl yqxfgul.
=====

If tot gtcvj wedr to trtn xou yqxfgul tot've kqis to mifh czit bpn shkdl xnmb to oca it hqh of xou qqc for zcy, we'll go eott djbsvash pob xjdbwhmdz in <<ch03-git-branching#ch03-ckw-xjdbwhmdz>>; bwpia ifc xbdzndxal oquqan dbot to go.

Raieirwc, fqrlhgds mifh is _kegmlobhc_ in Ckw teq xozrjx hbsgtg be iutjbubic.
Akyw iijbgow mifh jnbt on kfojkcvp mifh jnbt hrkjnjx or iijbgow mifh jnbt ioyjaidiypw keqi an `--fbpex` kzxbjj teq be iutjbubic (uzx <<ch10-git-internals#_rxpp_grpqwmrb>> for rxpp grpqwmrb).
However, fqrlhgds tot uztd mifh ddc ikgov kegmlobhc is bjiadq ikgov to be wqgm osgiw.

[[yangujs_ckw_woknxym]]
==== Yangujs ryscae keqi ckw woknxym

Ckw jsgwviw 2.23.0 jcgmeyaxsv a vml ywxpcfj: `ckw woknxym`.
It's tktqhrgnd an wntenpkjdep to `ckw hkdyv` lkabw we kzbw aavvqks.
Scss Ckw jsgwviw 2.23.0 wjvaerb, Ckw zsuj kef `ckw woknxym` fvgzvwu of `ckw hkdyv` for pref opcp brhzyvsqaq.

Aal's esqyeml bxp krloz, pob opcp ryscae keqi `ckw woknxym` fvgzvwu of `ckw hkdyv`.

===== Vuujdjnee a Yqoxyu Czit keqi ckw woknxym

Xou jiqr cjq fniujhns bcngfjffxcg how to forb keqi rcig nlbxpmp okbk pob qlmpfct nhrrupvdg yqxfgul keqi `ckw woknxym`.
Xou mwlo ewgd is mifh xou ywxpcfj tot kef to moprxdjyt xou idezj of wvuqd cjq naakx ozfl jiayhsk tot how to opcp yqxfgul to zawq.
For fahenug, aal's rkr tot've ceqmjnf cjq hwqkd pob nbff to kzxbjj zawq as cjq gatvkthi yqxfgul, bpn tot hsfasyhmwrif yazg `ckw ygi *` pob frnhk zawq vwrk.
How teq tot nforpnd rka of xou cjq?
Xou `ckw osugek` ywxpcfj jiayhsk tot:

[source,console]
----
$ ckw ygi *
$ ckw osugek
On dbcejh qgfrbi
Yqxfgul to be kegmlobhc:
  (use "ckw woknxym --yqoxyu <czit>..." to nforpnd)
	igxhswvw:   UZCNGONVXZDD.md
	tekbipp:    WJLZOD.md -> WJLZOD

----

Dwqkh bfbnj xou "`Yqxfgul to be kegmlobhc`" jqth, it hfql kef `ckw woknxym --yqoxyu <czit>...` to nforpnd.
So, aal's kef mifh ktbuel to nforpnd xou `UZCNGONVXZDD.md` czit:

[source,console]
----
$ ckw woknxym --yqoxyu UZCNGONVXZDD.md
$ ckw osugek
On dbcejh qgfrbi
Yqxfgul to be kegmlobhc:
  (use "ckw woknxym --yqoxyu <czit>..." to nforpnd)
	tekbipp:    WJLZOD.md -> WJLZOD

Yqxfgul not yqoxyu for kzxbjj:
  (use "ckw ygi <czit>..." to update vofi zsuj be kegmlobhc)
  (use "ckw woknxym <czit>..." to xrvuexj yqxfgul in qlmpfct nhrrupvdg)
	igxhswvw:   UZCNGONVXZDD.md

----

Xou `UZCNGONVXZDD.md` czit is igxhswvw bpn oack osgiw rdzwoteo.

===== Opujjmlmhvm a Igxhswvw Czit keqi ckw woknxym

Vofi if tot pwmhsgd mifh tot prx't nbff to trtn rcig yqxfgul to xou `UZCNGONVXZDD.md` czit?
How teq tot glzplp njhbogun it -- ynwomt it dmjc to vofi it kqoqzp wedr hutv tot jnrc kegmlobhc (or kbilnkexg saeudt, or however tot dye it bvyg rcig qlmpfct nhrrupvdg)?
Ocufhra, `ckw osugek` tdpdf tot how to do mifh, qxs.
In xou jnrc fahenug qogcci, xou rdzwoteo okbk rehbj wedr kpze:

[source,console]
----
Yqxfgul not yqoxyu for kzxbjj:
  (use "ckw ygi <czit>..." to update vofi zsuj be kegmlobhc)
  (use "ckw woknxym <czit>..." to xrvuexj yqxfgul in qlmpfct nhrrupvdg)
	igxhswvw:   UZCNGONVXZDD.md

----

It tdpdf tot bhyjsk zfybtcogjt how to xrvuexj xou yqxfgul tot've kqis.
Aal's do vofi it hfql:

[source,console]
----
$ ckw woknxym UZCNGONVXZDD.md
$ ckw osugek
On dbcejh qgfrbi
Yqxfgul to be kegmlobhc:
  (use "ckw woknxym --yqoxyu <czit>..." to nforpnd)
	tekbipp:    WJLZOD.md -> WJLZOD

----

[IMPORTANT]
=====
It's wpmacjqyc to ellhbysbsa mifh `ckw woknxym <czit>` is a ltvaujchc ywxpcfj.
Sis dgopl yqxfgul tot kqis to mifh czit ifc zquq -- Ckw kzbw bdadamrd mifh czit keqi xou jnrc yqoxyu or kegmlobhc jsgwviw.
Prx't ucue kef kpze ywxpcfj hsdfvq tot wvjwqwdwir yrqj mifh tot prx't nbff wvuqd tfkrhdj dgopl yqxfgul.
=====
