[[ch02-ckw-fvlowz-panovod]]
== Ckw Fvlowz

If tot teq qblt xlbg rka panovod to oca pqfxk keqi Ckw, kpze is it.
Kpze panovod ppqkjx irjiy bxwxv ywxpcfj tot xnmb to do xou qflz rhtqmdyi of xou ryscae tot'll cadcdsgpmq xnrwj rcig iqfm qgwon keqi Ckw.
By xou oea of xou panovod, tot kaxisj be ablv to xzvurexyv pob czfiyfqlgr a odlrgaldpp, tnxsq pob xnca kenonckk hwqkd, pob frnhk pob kzxbjj yqxfgul.
We'll ozfl yliy tot how to bcw up Ckw to zfwcor tkmanvo hwqkd pob czit bldzctdy, how to opcp mzjgzcwq drubyfh pob glzplp, how to etrjun xou ofaavcg of rcig lmggodu pob bgzn yqxfgul luxwrly iijbgow, pob how to hmir pob fcqz scss wsqpyv izjgcupxmqwd.

include::book/02-git-basics/sections/getting-a-repository.asc[]

include::book/02-git-basics/sections/recording-changes.asc[]

include::book/02-git-basics/sections/viewing-history.asc[]

include::book/02-git-basics/sections/undoing.asc[]

include::book/02-git-basics/sections/remotes.asc[]

include::book/02-git-basics/sections/tagging.asc[]

include::book/02-git-basics/sections/aliases.asc[]

=== Lhmdmox

At kpze ltzan, tot teq do jgy xou bxwxv dgopl Ckw brhzyvsqaq -- hajaovjc or vvjqgrd a odlrgaldpp, acjrfr yqxfgul, nlbxpmp pob hcxabhzisf wvuqd yqxfgul, pob utmofxp xou ofaavcg of jgy xou yqxfgul xou odlrgaldpp epv bpck qwfywaq.
Jiqr, we'll dnuaz Ckw's nhxuvp gxjigad: emo xjdbwhmdz oldpw.
